resources/svg/major-referral-code.svg

<svg xmlns="http://www.w3.org/2000/svg" viewBox="0 0 20 20" fill="currentColor"><path d="M4 3h-1v1h-2v-1.5a1.5 1.5 0 0 1 1.5-1.5h1.5v2Z"/><path d="M16.707 6.255a1 1 0 1 0-1.414 1.414l1.293 1.292h-4.586a1 1 0 1 0 0 2h4.586l-1.293 1.293a1 1 0 1 0 1.414 1.414l3-3a1.001 1.001 0 0 0 0-1.415l-3-3v.002Z"/><path d="M7 6h2v8h-2v-8Z"/><path d="M19 18a1 1 0 0 1-1 1h-2v-2h1v-1h2v2Z"/><path d="M2 19a1 1 0 0 1-1-1v-2h2v1h1v2h-2Z"/><path d="M17 3v1h2v-1.5a1.5 1.5 0 0 0-1.5-1.5h-1.5v2h1Z"/><path d="M5 6h-4v8h4v-8Z"/></svg>

<svg xmlns="http://www.w3.org/2000/svg" viewBox="0 0 20 20" fill="currentColor"><path d="M4 3H3v1H1V2.5A1.5 1.5 0 0 1 2.5 1H4v2zM16.707 6.255a1 1 0 1 0-1.414 1.414l1.293 1.292H12a1 1 0 1 0 0 2h4.586l-1.293 1.293a1 1 0 1 0 1.414 1.414l3-3a1.001 1.001 0 0 0 0-1.415l-3-3v.002zM7 6h2v8H7V6zM19 18a1 1 0 0 1-1 1h-2v-2h1v-1h2v2zM2 19a1 1 0 0 1-1-1v-2h2v1h1v2H2zM17 3v1h2V2.5A1.5 1.5 0 0 0 17.5 1H16v2h1zM5 6H1v8h4V6z"/></svg>
